X:6001
T:Gan Ainm
R:jig
S:Natalie McMaster
H:
N:Version of Buttermilk Mary in O'Neills 1001.
D:Solo Album #1
Z:Adrian Scahill
M:6/8
L:1/8
K:A
cAE FEC|EAc ecA|def edc|cBB B2d|\
cea ecA|def edc|edc efg|aec A3:||\
eaa agf|ecA Ace|fbb b2a|gee efg|\
aba gag|fgf edc|def edc|BFG A3:||
